icons/fill-new-tool-ruler-measure.svg

<svg xmlns="http://www.w3.org/2000/svg" width="32px" height="32px" viewBox="0 0 32 32" version="1.1">
    <title>fill-new-tool-ruler-measure</title>
    <g id="fill-new-tool-ruler-measure" stroke-width="1" fill-rule="evenodd">
        <path d="M13,3 C13.5522847,3 14,3.44771525 14,4 L14,18 L28,18 C28.5522847,18 29,18.4477153 29,19 L29,28 C29,28.5522847 28.5522847,29 28,29 L24,29 L24,26 C24,25.4477153 23.5522847,25 23,25 C22.4477153,25 22,25.4477153 22,26 L22,29 L18,29 L18,26 C18,25.4477153 17.5522847,25 17,25 C16.4477153,25 16,25.4477153 16,26 L16,29 L12,29 L12,26 C12,25.4477153 11.5522847,25 11,25 C10.4477153,25 10,25.4477153 10,26 L10,29 L4,29 C3.44771525,29 3,28.5522847 3,28 L3,22 L6,22 C6.55228475,22 7,21.5522847 7,21 C7,20.4477153 6.55228475,20 6,20 L3,20 L3,16 L6,16 C6.55228475,16 7,15.5522847 7,15 C7,14.4477153 6.55228475,14 6,14 L3,14 L3,10 L6,10 C6.55228475,10 7,9.55228475 7,9 C7,8.44771525 6.55228475,8 6,8 L3,8 L3,4 C3,3.44771525 3.44771525,3 4,3 L13,3 Z" id="&#36335;&#24452;" />
    </g>
</svg>

<svg xmlns="http://www.w3.org/2000/svg" viewBox="0 0 32 32"><path fill="currentColor" d="M13 3a1 1 0 0 1 1 1v14h14a1 1 0 0 1 1 1v9a1 1 0 0 1-1 1h-4v-3a1 1 0 0 0-2 0v3h-4v-3a1 1 0 0 0-2 0v3h-4v-3a1 1 0 0 0-2 0v3H4a1 1 0 0 1-1-1v-6h3a1 1 0 0 0 0-2H3v-4h3a1 1 0 0 0 0-2H3v-4h3a1 1 0 1 0 0-2H3V4a1 1 0 0 1 1-1z"/></svg>
